!!!COM: Mendelssohn, Felix
!!!CDT: 1809/02/03-1847/11/04
!!!OPR: Sechs vierstimmige Lieder
!!!OTL: Es fiel ein Reif
!!!OPS: Op. 41
!!!ONM: Nr. 3
!!!OMD: Un poco Allegro
**kern	**text	**dynam	**kern	**text	**dynam	**kern	**text	**dynam	**kern	**text	**dynam
*part4	*part4	*part4	*part3	*part3	*part3	*part2	*part2	*part2	*part1	*part1	*part1
*staff4	*staff4	*	*staff3	*staff3	*	*staff2	*staff2	*	*staff1	*staff1	*
*Ivox	*	*	*Ivox	*	*	*Ivox	*	*	*Ivox	*	*
*I"Bass	*	*	*I"Tenor	*	*	*I"Alt	*	*	*I"Sopran	*	*
*clefF4	*	*	*clefGv2	*	*	*clefG2	*	*	*clefG2	*	*
*k[]	*	*	*k[]	*	*	*k[]	*	*	*k[]	*	*
*a:	*	*	*a:	*	*	*a:	*	*	*a:	*	*
*M4/4	*	*	*M4/4	*	*	*M4/4	*	*	*M4/4	*	*
*met(c)	*	*	*met(c)	*	*	*met(c)	*	*	*met(c)	*	*
*MM100	*	*	*MM100	*	*	*MM100	*	*	*MM100	*	*
=	=	=	=	=	=	=	=	=	=	=	=
*	*v:1	*	*	*v:1	*	*	*v:1	*	*	*v:1	*
4E'	Es	p	4E'	Es	p	4e'	Es	p	4e'	Es	p
=1	=1	=1	=1	=1	=1	=1	=1	=1	=1	=1	=1
4A'	fiel	.	4e'	fiel	.	4e'	fiel	.	4cc'	fiel	.
4A'	ein	.	4d'	ein	.	4e'	ein	.	4b'	ein	.
4A'	Reif	.	4c'	Reif	.	4e'	Reif	.	4a'	Reif	.
8.A	in	.	8.B	in	.	8.e	in	.	8.g#X	in	.
16A	der	.	16c	der	.	16e	der	.	16a	der	.
=2	=2	=2	=2	=2	=2	=2	=2	=2	=2	=2	=2
4E'	Früh-	.	4d'	Früh-	.	4e'	Früh-	.	4b'	Früh-	.
4E'	-lings-	.	4B'	-lings-	.	4e'	-lings-	.	4e'	-lings-	.
4AA'	-nacht,	.	4c'	-nacht,	.	4e'	-nacht,	.	4a'	-nacht,	.
4r	.	.	4e'	er	.	4e'	er	.	4e'	er	.
=3	=3	=3	=3	=3	=3	=3	=3	=3	=3	=3	=3
1r	.	.	4c'	fiel	.	4e'	fiel	.	4a'	fiel	.
.	.	.	8.B	auf	.	8.e	auf	.	8.g#X	auf	.
.	.	.	16A	die	.	16a	die	.	16a	die	.
.	.	.	4e'	bun-	.	4g#X'	bun-	.	4b'	bun-	.
.	.	.	4e'	-ten	.	4e'	-ten	.	4e'	-ten	.
=4	=4	=4	=4	=4	=4	=4	=4	=4	=4	=4	=4
2r	.	.	4c'	Blau-	.	4e'	Blau-	.	4a'	Blau-	.
.	.	.	8.B	-blü-	.	8.e	-blü-	.	8.g#X	-blü-	.
.	.	.	16A	-me-	.	16a	-me-	.	16a	-me-	.
4r	.	.	4e'	-lein,	.	4g#X'	-lein,	.	4b'	-lein,	.
4E	sie	.	4e	sie	.	4e	sie	.	4e	sie	.
=5	=5	=5	=5	=5	=5	=5	=5	=5	=5	=5	=5
2A	sind	<	2e	sind	<	2a	sind	<	2cc	sind	<
*C:	*	*	*C:	*	*	*C:	*	*	*C:	*	*
2G	ver-	.	2f	ver-	.	2b	ver-	.	2dd	ver-	.
=6	=6	=6	=6	=6	=6	=6	=6	=6	=6	=6	=6
2C	-wel-	f	(4.g	-wel-	f	2cc	-wel-	f	(4.ee	-wel-	f
.	.	.	8f)	.	.	.	.	.	8dd)	.	.
4C	-ket,	.	4e	-ket,	.	4e	-ket,	.	4cc	-ket,	.
*a:	*	*	*a:	*	*	*a:	*	*	*a:	*	*
4F	ver-	p	4A	ver-	p	4d#X	ver-	p	8aL	ver-	p
.	.	.	.	.	.	.	.	.	8bJ	.	.
=7	=7	=7	=7	=7	=7	=7	=7	=7	=7	=7	=7
1E	-dor-	.	4A	-wel-	.	1e	-dor-	.	4cc	-wel-	.
.	.	.	8B	-ket,	.	.	.	.	8b	-ket,	.
.	.	.	8c	ver-	.	.	.	.	8a	ver-	.
.	.	.	(4B	-dor-	.	.	.	.	2g#X	-dor-	.
.	.	.	4e)	.	.	.	.	.	.	.	.
=8	=8	=8	=8	=8	=8	=8	=8	=8	=8	=8	=8
2.AA;	-ret.	.	2.e;	-ret.	.	2.e;	-ret.	.	2.a;	-ret.	.
=||	=||	=||	=||	=||	=||	=||	=||	=||	=||	=||	=||
*	*v:2	*	*	*v:2	*	*	*v:2	*	*	*v:2	*
4E'	Ein	p	4E'	Ein	p	4e'	Ein	p	4e'	Ein	p
=9	=9	=9	=9	=9	=9	=9	=9	=9	=9	=9	=9
4A'	Jüng-	.	4e'	Jüng-	.	4e'	Jüng-	.	4cc'	Jüng-	.
4A'	-ling	.	4d'	-ling	.	4e'	-ling	.	4b'	-ling	.
4A'	hat-	.	4c'	hat-	.	4e'	hat-	.	4a'	hat-	.
8.A	-te	.	8.B	-te	.	8.e	-te	.	8.g#X	-te	.
16A	ein	.	16c	ein	.	16e	ein	.	16a	ein	.
=10	=10	=10	=10	=10	=10	=10	=10	=10	=10	=10	=10
4E'	Mäd-	.	4d'	Mäd-	.	4e'	Mäd-	.	4b'	Mäd-	.
4E'	-chen	.	4B'	-chen	.	4e'	-chen	.	4e'	-chen	.
4AA'	lieb,	.	4c'	lieb,	.	4e'	lieb,	.	4a'	lieb,	.
4r	.	.	4e'	sie	.	4e'	sie	.	4e'	sie	.
=11	=11	=11	=11	=11	=11	=11	=11	=11	=11	=11	=11
1r	.	.	4c'	flo-	.	4e'	flo-	.	4a'	flo-	.
.	.	.	8.BL	-hen	.	8.eL	-hen	.	8.g#XL	-hen	.
.	.	.	16AJ	.	.	16aJ	.	.	16aJ	.	.
.	.	.	4e'	heim-	.	4g#X'	heim-	.	4b'	heim-	.
.	.	.	8e'	-lich	.	8e'	-lich	.	8e'	-lich	.
.	.	.	8e'	von	.	8e'	von	.	8e'	von	.
=12	=12	=12	=12	=12	=12	=12	=12	=12	=12	=12	=12
2r	.	.	4c'	Hau-	.	4e'	Hau-	.	4a'	Hau-	.
.	.	.	8.BL	-se	.	8.eL	-se	.	8.g#XL	-se	.
.	.	.	16AJ	.	.	16aJ	.	.	16aJ	.	.
4r	.	.	4e'	fort,	.	4g#X'	fort,	.	4b'	fort,	.
4E	es	.	4e	es	.	4e	es	.	4e	es	.
=13	=13	=13	=13	=13	=13	=13	=13	=13	=13	=13	=13
2A	wusst’	.	2e	wusst’	.	2a	wusst’	.	2cc	wusst’	.
*C:	*	*	*C:	*	*	*C:	*	*	*C:	*	*
4G	we-	<	4f	we-	<	4b	we-	<	4dd	we-	<
4G	-der	.	4f	-der	.	4b	-der	.	4dd	-der	.
=14	=14	=14	=14	=14	=14	=14	=14	=14	=14	=14	=14
2C	Va-	f	(4.g	Va-	f	2cc	Va-	f	(4.ee	Va-	f
.	.	.	8f)	.	.	.	.	.	8dd)	.	.
4C	-ter	.	4e	-ter,	.	4e	-ter	.	4cc	-ter,	.
*a:	*	*	*a:	*	*	*a:	*	*	*a:	*	*
4F	noch	p	8A	we-	p	4d#X	noch	p	8a	we-	p
.	.	.	8A	-der	.	.	.	.	8b	-der	.
=15	=15	=15	=15	=15	=15	=15	=15	=15	=15	=15	=15
1E	Mut-	.	4A	Va-	.	1e	Mut-	.	4cc	Va-	.
.	.	.	8B	-ter	.	.	.	.	8b	-ter	.
.	.	.	8c	noch	.	.	.	.	8a	noch	.
.	.	.	(4B	Mut-	.	.	.	.	2g#X	Mut-	.
.	.	.	4e)	.	.	.	.	.	.	.	.
=16	=16	=16	=16	=16	=16	=16	=16	=16	=16	=16	=16
2.AA;	-ter.	.	2.e;	-ter.	.	2.e;	-ter.	.	2.a;	-ter.	.
=||	=||	=||	=||	=||	=||	=||	=||	=||	=||	=||	=||
*	*v:3	*	*	*v:3	*	*	*v:3	*	*	*v:3	*
4E	Sie	p	4E	Sie	p	4e	Sie	p	4e	Sie	p
=17	=17	=17	=17	=17	=17	=17	=17	=17	=17	=17	=17
4A'	sind	.	4e'	sind	.	4e'	sind	.	4cc'	sind	.
4E'	ge-	.	4d'	ge-	.	4e'	ge-	.	4b'	ge-	.
4F'	-wan-	.	4c'	-wan-	.	4a'	-wan-	.	4a'	-wan-	.
4C'	-dert	.	4A'	-dert	.	4e'	-dert	.	8.g#XL	-dert	.
.	.	.	.	.	.	.	.	.	16aJ	.	.
=18	=18	=18	=18	=18	=18	=18	=18	=18	=18	=18	=18
4D'	.	.	4d'	hin	.	4f'	hin	.	4b'	hin	.
4E'	.	.	4d'	und	.	4e'	und	.	4e'	und	.
4AA'	.	.	4c'	her,	.	4e'	her,	.	4a'	her,	.
4r	.	.	4e'	sie	.	4e'	sie	.	4e'	sie	.
=19	=19	=19	=19	=19	=19	=19	=19	=19	=19	=19	=19
1r	.	.	4c	ha-	.	4e	ha-	.	4a	ha-	.
.	.	.	8.B	-ben	.	8.e	-ben	.	8.g#X	-ben	.
.	.	.	16A	ge-	.	16a	ge-	.	16a	ge-	.
.	.	.	4e	-habt	.	4g#X	-habt	.	4b	-habt	.
.	.	.	8e	we-	.	8e	we-	.	8e	we-	.
.	.	.	8e	-der	.	8e	-der	.	8e	-der	.
=20	=20	=20	=20	=20	=20	=20	=20	=20	=20	=20	=20
2r	.	.	4c	Glück	.	4e	Glück	.	4a	Glück	.
.	.	.	8.BL	noch	.	8.eL	noch	.	8.g#XL	noch	.
.	.	.	16AJ	.	.	16aJ	.	.	16aJ	.	.
4r	.	.	4e	Stern,	.	4g#X	Stern,	.	4b	Stern,	.
4E	sie	.	4e	sie	.	4e	sie	.	4e	sie	.
=21	=21	=21	=21	=21	=21	=21	=21	=21	=21	=21	=21
2A	sind	.	2e	sind	.	2a	sind	.	2cc	sind	.
*C:	*	*	*C:	*	*	*C:	*	*	*C:	*	*
2G	ge-	<	2f	ge-	<	2b	ge-	<	2dd	ge-	<
=22	=22	=22	=22	=22	=22	=22	=22	=22	=22	=22	=22
2C	-stor-	f	(4.g	-stor-	f	2cc	-stor-	f	(4.ee	-stor-	f
.	.	.	8f)	.	.	.	.	.	8dd)	.	.
4C	-ben,	.	4e	-ben,	.	4e	-ben,	.	4cc	-ben,	.
*a:	*	*	*a:	*	*	*a:	*	*	*a:	*	*
4F	ver-	p	4A	ge-	p	4d#X	ver-	p	8aL	ge-	p
!LO:TX:t=rit.	!	!	!LO:TX:t=rit.	!	!	!LO:TX:t=rit.	!	!	!LO:TX:t=rit.	!	!
.	.	.	.	.	.	.	.	.	8bJ	.	.
=23	=23	=23	=23	=23	=23	=23	=23	=23	=23	=23	=23
1E	-dor-	.	4A	-stor-	.	1e	-dor-	.	4cc	-stor-	.
.	.	.	8B	-ben,	.	.	.	.	8b	-ben,	.
.	.	.	8c	ver-	.	.	.	.	8a	ver-	.
.	.	.	(4B	-dor-	.	.	.	.	2g#X	-dor-	.
.	.	.	4e)	.	.	.	.	.	.	.	.
=24	=24	=24	=24	=24	=24	=24	=24	=24	=24	=24	=24
2.AA;	-ben.	.	2.e;	-ben.	.	2.e;	-ben.	.	2.a;	-ben.	.
==	==	==	==	==	==	==	==	==	==	==	==
*-	*-	*-	*-	*-	*-	*-	*-	*-	*-	*-	*-
!!!system-decoration: ([s1,s2,s3,s4])
!!!RDF**kern: i = editorial accidental
!!!AGN: Choral
!!!YOR: https://mdz-nbn-resolving.de/details:bsb11150717
!!!YOO: München, Bayerische Staatsbibliothek
!!!URL-scan: https://www.digitale-sammlungen.de/de/view/bsb11150717?page=9
!!!EED: Wolfgang Drescher
!!!END: 2024/10/29
!!!ENC: Wolfgang Drescher
!!!EEV: 2024/12/17
!!!title: @{OPS} @{ONM}. @{OTL}